humanity-icon-theme/Humanity/apps/22/system-upgrade.svg

<?xml version="1.0" encoding="UTF-8" standalone="no"?>
<!-- Created with Inkscape (http://www.inkscape.org/) -->

<svg
   xmlns:dc="http://purl.org/dc/elements/1.1/"
   xmlns:cc="http://creativecommons.org/ns#"
   xmlns:rdf="http://www.w3.org/1999/02/22-rdf-syntax-ns#"
   xmlns:svg="http://www.w3.org/2000/svg"
   xmlns="http://www.w3.org/2000/svg"
   xmlns:xlink="http://www.w3.org/1999/xlink"
   xmlns:sodipodi="http://sodipodi.sourceforge.net/DTD/sodipodi-0.dtd"
   xmlns:inkscape="http://www.inkscape.org/namespaces/inkscape"
   width="22"
   height="22"
   id="svg3007"
   version="1.1"
   inkscape:version="0.47 r22583"
   sodipodi:docname="system-upgrade.svg">
  <defs
     id="defs3009">
    <linearGradient
       inkscape:collect="always"
       xlink:href="#linearGradient3311"
       id="linearGradient2953"
       gradientUnits="userSpaceOnUse"
       gradientTransform="matrix(-0.319447,0,0,-0.313352,-8.091984,22.937275)"
       x1="0.26926842"
       y1="12.162322"
       x2="47.224953"
       y2="12.162322" />
    <linearGradient
       id="linearGradient3311">
      <stop
         offset="0"
         style="stop-color:#ecb56c;stop-opacity:1"
         id="stop2519" />
      <stop
         offset="0.82442904"
         style="stop-color:#e86225;stop-opacity:1"
         id="stop3315" />
      <stop
         offset="1"
         style="stop-color:#b07c0b;stop-opacity:0"
         id="stop3317" />
    </linearGradient>
    <linearGradient
       inkscape:collect="always"
       xlink:href="#linearGradient3303"
       id="linearGradient2955"
       gradientUnits="userSpaceOnUse"
       gradientTransform="translate(-32.177854,-1.8738129)"
       x1="24.003723"
       y1="19"
       x2="9"
       y2="19" />
    <linearGradient
       id="linearGradient3303">
      <stop
         offset="0"
         style="stop-color:#cc7032;stop-opacity:1"
         id="stop3305" />
      <stop
         offset="0.8271265"
         style="stop-color:#bb2d13;stop-opacity:1"
         id="stop3307" />
      <stop
         offset="1"
         style="stop-color:#a87300;stop-opacity:0"
         id="stop3309" />
    </linearGradient>
    <linearGradient
       inkscape:collect="always"
       xlink:href="#linearGradient4222-0"
       id="linearGradient2957"
       gradientUnits="userSpaceOnUse"
       gradientTransform="matrix(0.3704967,0,0,-0.3617496,-24.509908,24.959309)"
       x1="32.23851"
       y1="37.684677"
       x2="21.87499"
       y2="18.892372" />
    <linearGradient
       id="linearGradient4222-0">
      <stop
         offset="0"
         style="stop-color:#ffffff;stop-opacity:1"
         id="stop4224-8" />
      <stop
         offset="1"
         style="stop-color:#ffffff;stop-opacity:0"
         id="stop4226-8" />
    </linearGradient>
    <linearGradient
       x1="34"
       y1="1"
       x2="34"
       y2="23.007294"
       id="linearGradient2419"
       xlink:href="#linearGradient3309"
       gradientUnits="userSpaceOnUse"
       gradientTransform="translate(-24.5,0)" />
    <linearGradient
       x1="63.9995"
       y1="3.1001"
       x2="63.9995"
       y2="122.8994"
       id="linearGradient3309"
       gradientUnits="userSpaceOnUse">
      <stop
         id="stop3311"
         style="stop-color:#f6f6f6;stop-opacity:1"
         offset="0" />
      <stop
         id="stop3313"
         style="stop-color:#d2d2d2;stop-opacity:1"
         offset="1" />
    </linearGradient>
    <linearGradient
       x1="40"
       y1="1"
       x2="40"
       y2="23.000202"
       id="linearGradient2421"
       xlink:href="#linearGradient3397"
       gradientUnits="userSpaceOnUse"
       gradientTransform="translate(-24.5,0)" />
    <linearGradient
       id="linearGradient3397">
      <stop
         id="stop3399"
         style="stop-color:#aaa;stop-opacity:1"
         offset="0" />
      <stop
         id="stop3401"
         style="stop-color:#8c8c8c;stop-opacity:1"
         offset="1" />
    </linearGradient>
    <linearGradient
       x1="86.132919"
       y1="105.105"
       x2="84.63858"
       y2="20.895"
       id="linearGradient2423"
       xlink:href="#linearGradient5128"
       gradientUnits="userSpaceOnUse"
       gradientTransform="matrix(0.1562313,0,0,0.1562313,2.0012016,2.1574324)" />
    <linearGradient
       id="linearGradient5128">
      <stop
         id="stop5130"
         style="stop-color:#eee;stop-opacity:1"
         offset="0" />
      <stop
         id="stop5132"
         style="stop-color:#a2a2a2;stop-opacity:1"
         offset="1" />
    </linearGradient>
  </defs>
  <sodipodi:namedview
     id="base"
     pagecolor="#ffffff"
     bordercolor="#666666"
     borderopacity="1.0"
     inkscape:pageopacity="0.0"
     inkscape:pageshadow="2"
     inkscape:zoom="5.5494505"
     inkscape:cx="8"
     inkscape:cy="8"
     inkscape:current-layer="layer1"
     showgrid="true"
     inkscape:grid-bbox="true"
     inkscape:document-units="px"
     inkscape:window-width="603"
     inkscape:window-height="484"
     inkscape:window-x="417"
     inkscape:window-y="162"
     inkscape:window-maximized="0" />
  <metadata
     id="metadata3012">
    <rdf:RDF>
      <cc:Work
         rdf:about="">
        <dc:format>image/svg+xml</dc:format>
        <dc:type
           rdf:resource="http://purl.org/dc/dcmitype/StillImage" />
        <dc:title></dc:title>
      </cc:Work>
    </rdf:RDF>
  </metadata>
  <g
     id="layer1"
     inkscape:label="Layer 1"
     inkscape:groupmode="layer"
     transform="translate(0,6)">
    <g
       id="g2539"
       transform="translate(0,-6)">
      <g
         id="g2414"
         transform="translate(-1,-1)">
        <path
           style="fill:url(#linearGradient2419);fill-opacity:1;fill-rule:nonzero;stroke:url(#linearGradient2421);stroke-width:1;stroke-linecap:butt;stroke-linejoin:round;stroke-miterlimit:4;stroke-opacity:1;stroke-dasharray:none;stroke-dashoffset:0;marker:none;visibility:visible;display:block;overflow:visible;enable-background:accumulate"
           id="rect2426"
           d="M 10.1875,1.5 C 9.799134,1.5 9.5,1.7991339 9.5,2.1875 l 0,1.6875 C 8.988333,4.0322247 8.496816,4.2537684 8.03125,4.5 L 6.84375,3.3125 c -0.274616,-0.2746162 -0.725384,-0.2746162 -1,0 L 3.3125,5.84375 c -0.274616,0.2746162 -0.274616,0.7253836 0,1 L 4.5,8.03125 C 4.253769,8.4968155 4.032225,8.9883329 3.875,9.5 l -1.6875,0 C 1.799134,9.5 1.5,9.7991344 1.5,10.1875 l 0,3.625 C 1.5,14.200866 1.799134,14.5 2.1875,14.5 l 1.6875,0 c 0.157225,0.511667 0.378769,1.003185 0.625,1.46875 l -1.1875,1.1875 c -0.274616,0.274616 -0.274616,0.725384 0,1 l 2.53125,2.53125 c 0.274616,0.274616 0.725384,0.274616 1,0 L 8.03125,19.5 C 8.496816,19.746232 8.988333,19.967775 9.5,20.125 l 0,1.6875 c 0,0.388366 0.299135,0.6875 0.6875,0.6875 l 3.625,0 c 0.388366,0 0.6875,-0.299134 0.6875,-0.6875 l 0,-1.6875 c 0.511667,-0.157225 1.003185,-0.378768 1.46875,-0.625 l 1.1875,1.1875 c 0.274616,0.274616 0.725384,0.274616 1,0 l 2.53125,-2.53125 c 0.274616,-0.274616 0.274616,-0.725384 0,-1 L 19.5,15.96875 C 19.746232,15.503185 19.967775,15.011667 20.125,14.5 l 1.6875,0 c 0.388366,0 0.6875,-0.299134 0.6875,-0.6875 l 0,-3.625 C 22.5,9.7991341 22.200866,9.5 21.8125,9.5 l -1.6875,0 C 19.967775,8.9883329 19.746232,8.4968155 19.5,8.03125 l 1.1875,-1.1875 c 0.274616,-0.2746162 0.274616,-0.7253837 0,-1 L 18.15625,3.3125 c -0.274616,-0.2746162 -0.725384,-0.2746162 -1,0 L 15.96875,4.5 C 15.503185,4.2537684 15.011667,4.0322247 14.5,3.875 l 0,-1.6875 C 14.5,1.7991341 14.200866,1.5 13.8125,1.5 l -3.625,0 z M 12,9 c 1.656,0 3,1.344 3,3 0,1.656 -1.344,3 -3,3 -1.656,0 -3,-1.344 -3,-3 0,-1.656 1.344,-3 3,-3 z" />
        <path
           style="opacity:0.05;fill:#000000;fill-opacity:1;stroke:none"
           id="path3315"
           d="m 12,6 c -3.3084557,-2e-7 -5.9999999,2.6915446 -5.9999999,6 0,3.308455 2.6915442,6 5.9999999,6 3.308455,-1e-6 6,-2.691545 6,-6 0,-3.3084554 -2.691545,-6 -6,-6 z m 0,2.7692308 c 1.783385,0 3.230769,1.4473842 3.230769,3.2307692 0,1.783385 -1.447384,3.230769 -3.230769,3.230769 -1.783385,0 -3.2307692,-1.447384 -3.2307692,-3.230769 0,-1.783385 1.4473842,-3.2307692 3.2307692,-3.2307692 z" />
        <path
           style="fill:none;stroke:url(#linearGradient2423);stroke-width:1;stroke-miterlimit:4;stroke-dasharray:none"
           id="path28"
           d="m 11.999999,5.4999995 c -3.5840997,0 -6.4999994,2.9158997 -6.4999994,6.4999995 C 5.4999996,15.5841 8.4158993,18.5 11.999999,18.5 15.584101,18.5 18.5,15.5841 18.5,11.999999 18.5,8.4158992 15.584101,5.4999995 11.999999,5.4999995 z" />
      </g>
    </g>
    <g
       transform="matrix(0,-1,1,0,-0.12704009,-7.177854)"
       id="g2566">
      <path
         d="m -22.678854,18.626187 7.001,0 0,3.000853 7.000853,-6.001 -7.000853,-5.9999999 0,3.0001469 -7.001,0"
         id="path2911"
         style="fill:url(#linearGradient2953);fill-opacity:1;fill-rule:nonzero;stroke:url(#linearGradient2955);stroke-width:0.99800003;stroke-linecap:butt;stroke-linejoin:round;stroke-miterlimit:4;stroke-opacity:1;stroke-dasharray:none;stroke-dashoffset:0;marker:none;visibility:visible;display:inline;overflow:visible" />
      <path
         d="m -22.677854,17.626187 8,0 0,1.75121 4.545115,-3.751357 -4.545115,-3.8 0,1.800147 -8,0"
         id="path2913"
         style="opacity:0.3;fill:none;stroke:url(#linearGradient2957);stroke-width:0.99829447;stroke-linecap:butt;stroke-linejoin:miter;stroke-miterlimit:4;stroke-opacity:1;stroke-dasharray:none;stroke-dashoffset:0;marker:none;visibility:visible;display:inline;overflow:visible" />
    </g>
  </g>
</svg>

<?xml version="1.0" encoding="UTF-8" standalone="no"?>
<!-- Created with Inkscape (http://www.inkscape.org/) -->
<svg id="svg3007" xmlns:rdf="http://www.w3.org/1999/02/22-rdf-syntax-ns#" xmlns="http://www.w3.org/2000/svg" height="22" width="22" version="1.1" xmlns:cc="http://creativecommons.org/ns#" xmlns:xlink="http://www.w3.org/1999/xlink" xmlns:dc="http://purl.org/dc/elements/1.1/">
 <defs id="defs3009">
  <linearGradient id="linearGradient2953" y2="12.162" gradientUnits="userSpaceOnUse" x2="47.225" gradientTransform="matrix(-.31945 0 0 -.31335 -8.092 22.937)" y1="12.162" x1=".26927">
   <stop id="stop2519" style="stop-color:#ecb56c" offset="0"/>
   <stop id="stop3315" style="stop-color:#e86225" offset=".82443"/>
   <stop id="stop3317" style="stop-color:#b07c0b;stop-opacity:0" offset="1"/>
  </linearGradient>
  <linearGradient id="linearGradient2955" y2="19" gradientUnits="userSpaceOnUse" x2="9" gradientTransform="translate(-32.178 -1.8738)" y1="19" x1="24.004">
   <stop id="stop3305" style="stop-color:#cc7032" offset="0"/>
   <stop id="stop3307" style="stop-color:#bb2d13" offset=".82713"/>
   <stop id="stop3309" style="stop-color:#a87300;stop-opacity:0" offset="1"/>
  </linearGradient>
  <linearGradient id="linearGradient2957" y2="18.892" gradientUnits="userSpaceOnUse" x2="21.875" gradientTransform="matrix(.37050 0 0 -.36175 -24.51 24.959)" y1="37.685" x1="32.239">
   <stop id="stop4224-8" style="stop-color:#fff" offset="0"/>
   <stop id="stop4226-8" style="stop-color:#fff;stop-opacity:0" offset="1"/>
  </linearGradient>
  <linearGradient id="linearGradient2419" y2="23.007" gradientUnits="userSpaceOnUse" x2="34" gradientTransform="translate(-24.5)" y1="1" x1="34">
   <stop id="stop3311" style="stop-color:#f6f6f6" offset="0"/>
   <stop id="stop3313" style="stop-color:#d2d2d2" offset="1"/>
  </linearGradient>
  <linearGradient id="linearGradient2421" y2="23" gradientUnits="userSpaceOnUse" x2="40" gradientTransform="translate(-24.5)" y1="1" x1="40">
   <stop id="stop3399" style="stop-color:#aaa" offset="0"/>
   <stop id="stop3401" style="stop-color:#8c8c8c" offset="1"/>
  </linearGradient>
  <linearGradient id="linearGradient2423" y2="20.895" gradientUnits="userSpaceOnUse" x2="84.639" gradientTransform="matrix(.15623 0 0 .15623 2.0012 2.1574)" y1="105.1" x1="86.133">
   <stop id="stop5130" style="stop-color:#eee" offset="0"/>
   <stop id="stop5132" style="stop-color:#a2a2a2" offset="1"/>
  </linearGradient>
 </defs>
 <metadata id="metadata3012">
  <rdf:RDF>
   <cc:Work rdf:about="">
    <dc:format>image/svg+xml</dc:format>
    <dc:type rdf:resource="http://purl.org/dc/dcmitype/StillImage"/>
    <dc:title/>
   </cc:Work>
  </rdf:RDF>
 </metadata>
 <g id="layer1" transform="translate(0,6)">
  <g id="g2539" transform="translate(0,-6)">
   <g id="g2414" transform="translate(-1,-1)">
    <path id="rect2426" style="stroke-linejoin:round;stroke:url(#linearGradient2421);display:block;fill:url(#linearGradient2419)" d="m10.188 1.5c-0.3889 0-0.688 0.2991-0.688 0.6875v1.6875c-0.5117 0.1572-1.0032 0.3788-1.4688 0.625l-1.1874-1.1875c-0.27462-0.27462-0.72538-0.27462-1 0l-2.5313 2.5313c-0.27462 0.27462-0.27462 0.72538 0 1l1.1875 1.1874c-0.2462 0.4656-0.4678 0.9571-0.625 1.4688h-1.6875c-0.3884 0-0.6875 0.2991-0.6875 0.688v3.625c0 0.388 0.2991 0.687 0.6875 0.687h1.6875c0.15722 0.51167 0.37877 1.0032 0.625 1.4688l-1.1875 1.1875c-0.27462 0.27462-0.27462 0.72538 0 1l2.5312 2.5312c0.27462 0.27462 0.72538 0.27462 1 0l1.1875-1.187c0.4656 0.246 0.9571 0.468 1.4688 0.625v1.6875c0 0.38837 0.29914 0.6875 0.6875 0.6875h3.625c0.38837 0 0.6875-0.29913 0.6875-0.6875v-1.6875c0.51167-0.15722 1.0032-0.37877 1.4688-0.625l1.1875 1.1875c0.27462 0.27462 0.72538 0.27462 1 0l2.5312-2.5312c0.27462-0.27462 0.27462-0.72538 0-1l-1.187-1.186c0.246-0.466 0.468-0.957 0.625-1.469h1.6875c0.38837 0 0.6875-0.29913 0.6875-0.6875v-3.625c0-0.3879-0.299-0.687-0.688-0.687h-1.6875c-0.156-0.5117-0.378-1.0032-0.624-1.4688l1.1875-1.1875c0.27462-0.27462 0.27462-0.72538 0-1l-2.532-2.5312c-0.27462-0.27462-0.72538-0.27462-1 0l-1.187 1.1875c-0.466-0.2462-0.957-0.4678-1.469-0.625v-1.6875c0-0.3884-0.299-0.6875-0.688-0.6875h-3.625zm1.812 7.5c1.656 0 3 1.344 3 3s-1.344 3-3 3-3-1.344-3-3 1.344-3 3-3z"/>
    <path id="path3315" style="opacity:.05" d="m12 6c-3.3085-2e-7 -6 2.6915-6 6s2.6915 6 6 6c3.3085-0.000001 6-2.6915 6-6s-2.6915-6-6-6zm0 2.7692c1.7834 0 3.2308 1.4474 3.2308 3.2308s-1.4474 3.2308-3.2308 3.2308-3.2308-1.4474-3.2308-3.2308 1.4474-3.2308 3.2308-3.2308z"/>
    <path id="path28" style="stroke:url(#linearGradient2423);fill:none" d="m12 5.5c-3.5841 0-6.5 2.9159-6.5 6.5 0 3.584 2.9159 6.5 6.5 6.5 3.584 0 6.5-2.916 6.5-6.5 0-3.5841-2.916-6.5-6.5-6.5z"/>
   </g>
  </g>
  <g id="g2566" transform="matrix(0 -1 1 0 -.12704 -7.1779)">
   <path id="path2911" style="stroke-linejoin:round;stroke:url(#linearGradient2955);stroke-width:0.998;fill:url(#linearGradient2953)" d="m-22.679 18.626h7.001v3.0009l7.0009-6.001-7.0009-6v3.0001h-7.001"/>
   <path id="path2913" style="opacity:.3;stroke:url(#linearGradient2957);stroke-width:.99829;fill:none" d="m-22.678 17.626h8v1.7512l4.5451-3.7514-4.5451-3.8v1.8001h-8"/>
  </g>
 </g>
</svg>
